X: 41475
T: Tŷ A Gardd
R: jig
M: 6/8
K: Eminor
|:G2 E EDE|G2 E EDE|F2 F FGA|B3 G3|
G2 E EDE|G2 E EDE|F2 F FGF|E4 E2:|
EFG ABc|B2 B BAG|F2F FGA|B3 G3|
EFG ABc|B2 B BAG|F2 F FGF|E6|
e2 e edc|B2 B BAG|F2 F FGA|B3 G3|
e2 e edc|B2 B BAG|F2 F FGF|E6||

